svgs/duotone/jug-detergent.svg

<svg xmlns="http://www.w3.org/2000/svg" viewBox="0 0 384 512"><!--! Font Awesome Pro 6.6.0 by @fontawesome - https://fontawesome.com License - https://fontawesome.com/license (Commercial License) Copyright 2024 Fonticons, Inc. --><defs><style>.fa-secondary{opacity:.4}</style></defs><path class="fa-secondary" d="M64 72c0 13.3 10.7 24 24 24l144 0c13.3 0 24-10.7 24-24s-10.7-24-24-24l-8 0 0-24c0-13.3-10.7-24-24-24L120 0C106.7 0 96 10.7 96 24l0 24-8 0C74.7 48 64 58.7 64 72z"/><path class="fa-primary" d="M128 128C57.3 128 0 185.3 0 256L0 480c0 17.7 14.3 32 32 32l320 0c17.7 0 32-14.3 32-32l0-224c0-70.7-57.3-128-128-128l-128 0zm160 96c17.7 0 32 14.3 32 32l0 96c0 17.7-14.3 32-32 32s-32-14.3-32-32l0-96c0-17.7 14.3-32 32-32z"/></svg>

<svg xmlns="http://www.w3.org/2000/svg" viewBox="0 0 384 512"><!--! Font Awesome Pro 6.4.0 by @fontawesome - https://fontawesome.com License - https://fontawesome.com/license (Commercial License) Copyright 2023 Fonticons, Inc. --><defs><style>.fa-secondary{opacity:.4}</style></defs><path class="fa-primary" d="M128 128C57.3 128 0 185.3 0 256V480c0 17.7 14.3 32 32 32H352c17.7 0 32-14.3 32-32V256c0-70.7-57.3-128-128-128H128zm160 96c17.7 0 32 14.3 32 32v96c0 17.7-14.3 32-32 32s-32-14.3-32-32V256c0-17.7 14.3-32 32-32z"/><path class="fa-secondary" d="M120 0C106.7 0 96 10.7 96 24V48H88C74.7 48 64 58.7 64 72s10.7 24 24 24H232c13.3 0 24-10.7 24-24s-10.7-24-24-24h-8V24c0-13.3-10.7-24-24-24H120z"/></svg>
